static/img/kroki/5d0168301eefae8718895b20d46eb43a.svg

<?xml version="1.0" encoding="us-ascii" standalone="no"?><svg xmlns="http://www.w3.org/2000/svg" xmlns:xlink="http://www.w3.org/1999/xlink" contentStyleType="text/css" height="374px" preserveAspectRatio="none" style="width:348px;height:374px;" version="1.1" viewBox="0 0 348 374" width="348px" zoomAndPan="magnify"><defs/><g><!--class azure_network_subnet--><g id="elem_azure_network_subnet"><rect codeLine="23" fill="#3D176E" height="39.7891" id="azure_network_subnet" rx="2.5" ry="2.5" style="stroke:#000D19;stroke-width:0.5;" width="233" x="82.5" y="328.58"/><ellipse cx="97.5" cy="348.4745" fill="#ADD1B2" rx="11" ry="11" style="stroke:#181818;stroke-width:1.0;"/><path d="M100.4688,354.1152 Q99.8906,354.412 99.25,354.5527 Q98.6094,354.7089 97.9063,354.7089 Q95.4063,354.7089 94.0781,353.0683 Q92.7656,351.412 92.7656,348.287 Q92.7656,345.162 94.0781,343.5058 Q95.4063,341.8495 97.9063,341.8495 Q98.6094,341.8495 99.25,342.0058 Q99.9063,342.162 100.4688,342.4589 L100.4688,345.1777 Q99.8438,344.5995 99.25,344.3339 Q98.6563,344.0527 98.0313,344.0527 Q96.6875,344.0527 96,345.1308 Q95.3125,346.1933 95.3125,348.287 Q95.3125,350.3808 96,351.4589 Q96.6875,352.5214 98.0313,352.5214 Q98.6563,352.5214 99.25,352.2558 Q99.8438,351.9745 100.4688,351.3964 L100.4688,354.1152 Z " fill="#000000"/><text fill="#D9B8FF" font-family="Helvetica" font-size="17" lengthAdjust="spacing" textLength="191" x="116.5" y="354.3598">azure_network_subnet</text></g><!--class microsoft_resource--><g id="elem_microsoft_resource"><rect codeLine="26" fill="#3D176E" height="39.7891" id="microsoft_resource" rx="2.5" ry="2.5" style="stroke:#000D19;stroke-width:0.5;" width="200" x="7" y="167.79"/><ellipse cx="22" cy="187.6845" fill="#ADD1B2" rx="11" ry="11" style="stroke:#181818;stroke-width:1.0;"/><path d="M24.9688,193.3252 Q24.3906,193.622 23.75,193.7627 Q23.1094,193.9189 22.4063,193.9189 Q19.9063,193.9189 18.5781,192.2783 Q17.2656,190.622 17.2656,187.497 Q17.2656,184.372 18.5781,182.7158 Q19.9063,181.0595 22.4063,181.0595 Q23.1094,181.0595 23.75,181.2158 Q24.4063,181.372 24.9688,181.6689 L24.9688,184.3877 Q24.3438,183.8095 23.75,183.5439 Q23.1563,183.2627 22.5313,183.2627 Q21.1875,183.2627 20.5,184.3408 Q19.8125,185.4033 19.8125,187.497 Q19.8125,189.5908 20.5,190.6689 Q21.1875,191.7314 22.5313,191.7314 Q23.1563,191.7314 23.75,191.4658 Q24.3438,191.1845 24.9688,190.6064 L24.9688,193.3252 Z " fill="#000000"/><text fill="#D9B8FF" font-family="Helvetica" font-size="17" lengthAdjust="spacing" textLength="158" x="41" y="193.5698">microsoft_resource</text></g><!--class resource--><g id="elem_resource"><rect codeLine="29" fill="#3D176E" height="39.7891" id="resource" rx="2.5" ry="2.5" style="stroke:#000D19;stroke-width:0.5;" width="113" x="142.5" y="7"/><ellipse cx="157.5" cy="26.8945" fill="#ADD1B2" rx="11" ry="11" style="stroke:#181818;stroke-width:1.0;"/><path d="M160.4688,32.5352 Q159.8906,32.832 159.25,32.9727 Q158.6094,33.1289 157.9063,33.1289 Q155.4063,33.1289 154.0781,31.4883 Q152.7656,29.832 152.7656,26.707 Q152.7656,23.582 154.0781,21.9258 Q155.4063,20.2695 157.9063,20.2695 Q158.6094,20.2695 159.25,20.4258 Q159.9063,20.582 160.4688,20.8789 L160.4688,23.5977 Q159.8438,23.0195 159.25,22.7539 Q158.6563,22.4727 158.0313,22.4727 Q156.6875,22.4727 156,23.5508 Q155.3125,24.6133 155.3125,26.707 Q155.3125,28.8008 156,29.8789 Q156.6875,30.9414 158.0313,30.9414 Q158.6563,30.9414 159.25,30.6758 Q159.8438,30.3945 160.4688,29.8164 L160.4688,32.5352 Z " fill="#000000"/><text fill="#D9B8FF" font-family="Helvetica" font-size="17" lengthAdjust="spacing" textLength="71" x="176.5" y="32.7798">resource</text></g><!--class subnet--><g id="elem_subnet"><rect codeLine="32" fill="#3D176E" height="39.7891" id="subnet" rx="2.5" ry="2.5" style="stroke:#000D19;stroke-width:0.5;" width="99" x="242.5" y="167.79"/><ellipse cx="257.5" cy="187.6845" fill="#ADD1B2" rx="11" ry="11" style="stroke:#181818;stroke-width:1.0;"/><path d="M260.4688,193.3252 Q259.8906,193.622 259.25,193.7627 Q258.6094,193.9189 257.9063,193.9189 Q255.4063,193.9189 254.0781,192.2783 Q252.7656,190.622 252.7656,187.497 Q252.7656,184.372 254.0781,182.7158 Q255.4063,181.0595 257.9063,181.0595 Q258.6094,181.0595 259.25,181.2158 Q259.9063,181.372 260.4688,181.6689 L260.4688,184.3877 Q259.8438,183.8095 259.25,183.5439 Q258.6563,183.2627 258.0313,183.2627 Q256.6875,183.2627 256,184.3408 Q255.3125,185.4033 255.3125,187.497 Q255.3125,189.5908 256,190.6689 Q256.6875,191.7314 258.0313,191.7314 Q258.6563,191.7314 259.25,191.4658 Q259.8438,191.1845 260.4688,190.6064 L260.4688,193.3252 Z " fill="#000000"/><text fill="#D9B8FF" font-family="Helvetica" font-size="17" lengthAdjust="spacing" textLength="57" x="276.5" y="193.5698">subnet</text></g><!--reverse link microsoft_resource to azure_network_subnet--><g id="link_microsoft_resource_azure_network_subnet"><path codeLine="35" d="M127.1227,223.4153 C144.8027,253.9353 170.16,297.69 187.86,328.25 " fill="none" id="microsoft_resource-backto-azure_network_subnet" style="stroke:#FFAF37;stroke-width:2.0;"/><polygon fill="none" points="118.1,207.84,121.9309,226.4229,132.3145,220.4078,118.1,207.84" style="stroke:#FFAF37;stroke-width:2.0;"/></g><!--reverse link subnet to azure_network_subnet--><g id="link_subnet_azure_network_subnet"><path codeLine="36" d="M271.685,223.3732 C253.815,253.8932 228.16,297.69 210.26,328.25 " fill="none" id="subnet-backto-azure_network_subnet" style="stroke:#FFAF37;stroke-width:2.0;"/><polygon fill="none" points="280.78,207.84,266.5073,220.3416,276.8628,226.4049,280.78,207.84" style="stroke:#FFAF37;stroke-width:2.0;"/></g><!--reverse link resource to microsoft_resource--><g id="link_resource_microsoft_resource"><path codeLine="37" d="M178.8773,62.6253 C161.1973,93.1453 135.84,136.9 118.14,167.46 " fill="none" id="resource-backto-microsoft_resource" style="stroke:#FFAF37;stroke-width:2.0;"/><polygon fill="none" points="187.9,47.05,173.6855,59.6178,184.0691,65.6329,187.9,47.05" style="stroke:#FFAF37;stroke-width:2.0;"/></g><!--reverse link resource to subnet--><g id="link_resource_subnet"><path codeLine="38" d="M219.315,62.5832 C237.185,93.1032 262.84,136.9 280.74,167.46 " fill="none" id="resource-backto-subnet" style="stroke:#FFAF37;stroke-width:2.0;"/><polygon fill="none" points="210.22,47.05,214.1372,65.6149,224.4927,59.5516,210.22,47.05" style="stroke:#FFAF37;stroke-width:2.0;"/></g><!--SRC=[XP11Jy9048Nl_HMRS2Pf9GeaNh29qGinufrikxEmQRj3PgSseFvtGQfPjwNSDlE-UU_DReq20TMEzwA2AWDoaIkCtKcIbLWGOPDYYIH6MaizcORY8rg-2Ynb1U89odTWaykGUDkQlB3WdBZnf0UP5nl2sggpFPEqxYY1POzAI-dSWfbCLZDuPTGycsaTag7fQAAIwHrqC2G5r29n7Aja7Y9NemRl_YDMvW0YyJzjYGoTcfs87sgmvOdmIdOE_TKlTdoHIXcx4RVUxFNSYIpGl_bgAnKs9rhBqlanZe40UR-3j7CLp6TAJtlXvqjmb9- -JiX3JR2sm0rIiNPrTdoAZoZwQlNAv8GEDQy97DQKWw_spNoFdktxp_5ut1iRjPi3HE3IjG-9TkyR]--></g></svg>

<svg xmlns="http://www.w3.org/2000/svg" width="348" height="374" viewBox="0 0 348 374"><rect width="233" height="39.789" x="82.5" y="328.58" fill="#3D176E" rx="2.5" ry="2.5" style="stroke:#000d19;stroke-width:.5"/><circle cx="97.5" cy="348.474" r="11" fill="#ADD1B2" style="stroke:#181818;stroke-width:1"/><path d="M100.469 354.115q-.578.297-1.219.438-.64.156-1.344.156-2.5 0-3.828-1.64-1.312-1.657-1.312-4.782t1.312-4.781q1.328-1.656 3.828-1.656.703 0 1.344.156.656.156 1.219.453v2.719q-.625-.579-1.219-.844-.594-.281-1.219-.281-1.344 0-2.031 1.078-.687 1.062-.687 3.156t.687 3.172q.688 1.062 2.031 1.062.625 0 1.219-.265.594-.281 1.219-.86z"/><text x="116.5" y="354.36" fill="#D9B8FF" font-family="Helvetica" font-size="17" textLength="191">azure_network_subnet</text><rect width="200" height="39.789" x="7" y="167.79" fill="#3D176E" rx="2.5" ry="2.5" style="stroke:#000d19;stroke-width:.5"/><circle cx="22" cy="187.685" r="11" fill="#ADD1B2" style="stroke:#181818;stroke-width:1"/><path d="M24.969 193.325q-.578.297-1.219.438-.64.156-1.344.156-2.5 0-3.828-1.64-1.312-1.657-1.312-4.782t1.312-4.781q1.328-1.656 3.828-1.656.703 0 1.344.156.656.156 1.219.453v2.719q-.625-.578-1.219-.844-.594-.281-1.219-.281-1.343 0-2.031 1.078-.687 1.062-.687 3.156t.687 3.172q.688 1.062 2.031 1.062.625 0 1.219-.265.594-.281 1.219-.86z"/><text x="41" y="193.57" fill="#D9B8FF" font-family="Helvetica" font-size="17" textLength="158">microsoft_resource</text><rect width="113" height="39.789" x="142.5" y="7" fill="#3D176E" rx="2.5" ry="2.5" style="stroke:#000d19;stroke-width:.5"/><circle cx="157.5" cy="26.895" r="11" fill="#ADD1B2" style="stroke:#181818;stroke-width:1"/><path d="M160.469 32.535q-.578.297-1.219.438-.64.156-1.344.156-2.5 0-3.828-1.64-1.312-1.657-1.312-4.782t1.312-4.781q1.328-1.656 3.828-1.656.703 0 1.344.156.656.156 1.219.453v2.719q-.625-.578-1.219-.844-.594-.281-1.219-.281-1.344 0-2.031 1.078-.687 1.062-.687 3.156t.687 3.172q.688 1.062 2.031 1.062.625 0 1.219-.265.594-.281 1.219-.86z"/><text x="176.5" y="32.78" fill="#D9B8FF" font-family="Helvetica" font-size="17" textLength="71">resource</text><rect width="99" height="39.789" x="242.5" y="167.79" fill="#3D176E" rx="2.5" ry="2.5" style="stroke:#000d19;stroke-width:.5"/><circle cx="257.5" cy="187.685" r="11" fill="#ADD1B2" style="stroke:#181818;stroke-width:1"/><path d="M260.469 193.325q-.578.297-1.219.438-.64.156-1.344.156-2.5 0-3.828-1.64-1.312-1.657-1.312-4.782t1.312-4.781q1.328-1.656 3.828-1.656.703 0 1.344.156.656.156 1.219.453v2.719q-.625-.578-1.219-.844-.594-.281-1.219-.281-1.344 0-2.031 1.078-.687 1.062-.687 3.156t.687 3.172q.688 1.062 2.031 1.062.625 0 1.219-.265.594-.281 1.219-.86z"/><text x="276.5" y="193.57" fill="#D9B8FF" font-family="Helvetica" font-size="17" textLength="57">subnet</text><g fill="none"><path d="M127.123 223.415c17.68 30.52 43.037 74.275 60.737 104.835" style="stroke:#ffaf37;stroke-width:2"/><path d="m118.1 207.84 3.83 18.583 10.385-6.015z" style="stroke:#ffaf37;stroke-width:2"/></g><g fill="none"><path d="M271.685 223.373c-17.87 30.52-43.525 74.317-61.425 104.877" style="stroke:#ffaf37;stroke-width:2"/><path d="m280.78 207.84-14.273 12.502 10.356 6.063z" style="stroke:#ffaf37;stroke-width:2"/></g><g fill="none"><path d="M178.877 62.625c-17.68 30.52-43.037 74.275-60.737 104.835" style="stroke:#ffaf37;stroke-width:2"/><path d="m187.9 47.05-14.215 12.568 10.384 6.015z" style="stroke:#ffaf37;stroke-width:2"/></g><g fill="none"><path d="M219.315 62.583c17.87 30.52 43.525 74.317 61.425 104.877" style="stroke:#ffaf37;stroke-width:2"/><path d="m210.22 47.05 3.917 18.565 10.356-6.063z" style="stroke:#ffaf37;stroke-width:2"/></g></svg>
